symbols/web/slideshow/materialsymbolsrounded/slideshow_wght100_40px.svg

<svg xmlns="http://www.w3.org/2000/svg" height="40" width="40"><path d="m18.5 24.25 5.125-3.292q.25-.166.375-.416.125-.25.125-.542 0-.292-.125-.542-.125-.25-.375-.416L18.5 15.75q-.583-.375-1.188-.042-.604.334-.604 1.042v6.5q0 .708.604 1.042.605.333 1.188-.042Zm-9 8.583q-1 0-1.667-.666-.666-.667-.666-1.667v-21q0-1 .666-1.667.667-.666 1.667-.666h21q1 0 1.667.666.666.667.666 1.667v21q0 1-.666 1.667-.667.666-1.667.666Zm0-1h21q.583 0 .958-.375t.375-.958v-21q0-.583-.375-.958t-.958-.375h-21q-.583 0-.958.375t-.375.958v21q0 .583.375.958t.958.375Zm-1.333 0V8.167 31.833Z"/></svg>

<svg xmlns="http://www.w3.org/2000/svg" height="40" width="40"><path d="M18.5 24.25 23.625 20.958Q23.875 20.792 24 20.542Q24.125 20.292 24.125 20Q24.125 19.708 24 19.458Q23.875 19.208 23.625 19.042L18.5 15.75Q17.917 15.375 17.312 15.708Q16.708 16.042 16.708 16.75V23.25Q16.708 23.958 17.312 24.292Q17.917 24.625 18.5 24.25ZM9.5 32.833Q8.5 32.833 7.833 32.167Q7.167 31.5 7.167 30.5V9.5Q7.167 8.5 7.833 7.833Q8.5 7.167 9.5 7.167H30.5Q31.5 7.167 32.167 7.833Q32.833 8.5 32.833 9.5V30.5Q32.833 31.5 32.167 32.167Q31.5 32.833 30.5 32.833ZM9.5 31.833H30.5Q31.083 31.833 31.458 31.458Q31.833 31.083 31.833 30.5V9.5Q31.833 8.917 31.458 8.542Q31.083 8.167 30.5 8.167H9.5Q8.917 8.167 8.542 8.542Q8.167 8.917 8.167 9.5V30.5Q8.167 31.083 8.542 31.458Q8.917 31.833 9.5 31.833ZM8.167 31.833Q8.167 31.833 8.167 31.458Q8.167 31.083 8.167 30.5V9.5Q8.167 8.917 8.167 8.542Q8.167 8.167 8.167 8.167Q8.167 8.167 8.167 8.542Q8.167 8.917 8.167 9.5V30.5Q8.167 31.083 8.167 31.458Q8.167 31.833 8.167 31.833Z"/></svg>
